X: 14248
T: Further, The Deeper, The
R: jig
M: 6/8
K: Adorian
|:e3 edB|dBA A2B|G3 GBd|edB AB/c/d|
e3 efg|aea e2f|g3 dB/c/d|1 ecA A2d:|2 ecA Ae/f/g||
|:a3 efg|aea e2f|g3 gfe|dBA AB/c/d|
[1a3 efg|aea e2 f|g3 dB/c/d|ecA Afg:|
[2 agf gfe|fed edB|g3 dB/c/d|ecA A3||

